X: 30831
T: Our Lady's Bungalow
R: reel
M: 4/4
K: Edorian
|:E2GE BEGE|(3DED FA dcde|f~d3 edBc|dBAc BAGF:|
E2GE BEGE|(3DED FA dcde|f~d3 edBc|1 dBAc BAGF:|2 dBAc B~E3||
|:B~B3 g~B3|e~B3 defg|a~f3 defa|g2fg edBd|
e~B3 g~B3|e~B3 defg|afge fdec|dBAc B~E3:|

